source/img/cause-05.svg

<svg width="64" height="65" viewBox="0 0 64 65" fill="none" xmlns="http://www.w3.org/2000/svg">
<path d="M64 32.9053C64 64.9053 64 64.9053 32 64.9053C0 64.9053 0 64.9053 0 32.9053C0 0.905273 0 0.905273 32 0.905273C64 0.905273 64 0.905273 64 32.9053Z" fill="#F7B519"/>
<path d="M45.8527 33.9443C46.4864 33.9443 47 33.4301 47 32.7958V31.2643C47 25.1914 44.2967 22.2341 38.7582 22.2341H34.6703C34.0048 22.2372 33.3759 21.9297 32.9692 21.4024L31.6505 19.6465C30.7987 18.5521 29.4891 17.9137 28.1033 17.917H25.2286C19.7692 17.917 17 21.0723 17 27.3037V38.5651C17 44.3476 20.5868 47.9386 26.3758 47.9386H37.611C43.3868 47.9386 46.9868 44.3476 46.9868 38.5651C46.9237 37.9747 46.426 37.527 45.833 37.527C45.2399 37.527 44.7423 37.9747 44.6791 38.5651C44.6791 43.1198 42.1736 45.6414 37.611 45.6414H26.3626C21.8 45.6414 19.2945 43.133 19.2945 38.5651V37.4693H37.756C38.3897 37.4693 38.9033 36.9551 38.9033 36.3207C38.9033 35.6864 38.3897 35.1721 37.756 35.1721H19.2945V27.2509C19.2945 22.2869 21.0615 20.1614 25.2154 20.1614H28.1165C28.7819 20.1712 29.4072 20.4818 29.8176 21.0063L31.1363 22.749C31.9733 23.8594 33.2808 24.5139 34.6703 24.5181H38.7451C43.0308 24.5181 44.6923 26.4324 44.6923 31.2643V32.7958C44.6923 33.1027 44.815 33.3969 45.033 33.6126C45.251 33.8284 45.5462 33.9479 45.8527 33.9443Z" fill="#343A41"/>
</svg>

<svg width="64" height="65" fill="none" xmlns="http://www.w3.org/2000/svg"><path d="M64 32.905c0 32 0 32-32 32s-32 0-32-32 0-32 32-32 32 0 32 32z" fill="#F7B519"/><path d="M45.853 33.944c.633 0 1.147-.514 1.147-1.148v-1.532c0-6.073-2.703-9.03-8.242-9.03H34.67a2.136 2.136 0 01-1.7-.832l-1.32-1.756a4.482 4.482 0 00-3.547-1.729H25.23c-5.46 0-8.229 3.155-8.229 9.387v11.261c0 5.783 3.587 9.374 9.376 9.374H37.61c5.776 0 9.376-3.591 9.376-9.374a1.16 1.16 0 00-2.308 0c0 4.555-2.505 7.076-7.068 7.076H26.363c-4.563 0-7.069-2.508-7.069-7.076V37.47h18.462a1.148 1.148 0 000-2.297H19.294v-7.921c0-4.964 1.767-7.09 5.921-7.09h2.901c.666.01 1.291.32 1.702.845l1.318 1.743a4.442 4.442 0 003.534 1.77h4.075c4.286 0 5.947 1.913 5.947 6.745v1.532a1.15 1.15 0 001.16 1.148z" fill="#343A41"/></svg>
